X:1538
T:Maid in the Cherry Tree
R:reel
N:"collected from F. O'Neill"
B:"O'Neill's Dance Music of Ireland, 1538"
T: an aindear annsa crann siris.
Z:transcribed by John B. Walsh, walsh@math.ubc.ca 8/23/96
M:C|
L:1/8
K:A
cd "Segno"|:eAAF G2 cd|eA 3AAA gefd|eAAF G2 Bc|dBgB TBA A2:|
ea 3baga baag|eaag 3efg dg|ea 3baga baaf|gedB TBA A2|
ea 3baga baag|eaaf g2 ga|bgaf gefd|edgB TBA A2 "Segno"||
